docs/images/icons/building.svg

<svg width="35" height="35" fill="none" xmlns="http://www.w3.org/2000/svg"><defs><clipPath id="a"><path fill="#fff" fill-opacity="0" d="M0 0h35v35H0z"/></clipPath></defs><path d="M0 0h35v35H0z"/><g clip-path="url(#a)" fill="#000"><path d="M12.25 12.95h2.1c.21 0 .34-.15.34-.36v-2.1c0-.21-.13-.35-.34-.35h-2.1c-.21 0-.36.14-.36.35v2.1c0 .21.15.36.36.36Zm.35-2.11H14v1.4h-1.4v-1.4Zm3.85 2.11h2.1c.21 0 .34-.15.34-.36v-2.1c0-.21-.13-.35-.34-.35h-2.1c-.21 0-.35.14-.35.35v2.1c0 .21.14.36.35.36Zm.35-2.11h1.4v1.4h-1.4v-1.4Zm3.84 2.11h2.11c.21 0 .34-.15.34-.36v-2.1c0-.21-.13-.35-.34-.35h-2.11c-.21 0-.35.14-.35.35v2.1c0 .21.14.36.35.36Zm.36-2.11h1.39v1.4H21v-1.4Zm-8.75 5.95h2.1c.21 0 .34-.13.34-.34v-2.1c0-.21-.13-.35-.34-.35h-2.1c-.21 0-.36.14-.36.35v2.1c0 .21.15.34.36.34Zm.35-2.09H14v1.4h-1.4v-1.4Zm3.85 2.09h2.1c.21 0 .34-.13.34-.34v-2.1c0-.21-.13-.35-.34-.35h-2.1c-.21 0-.35.14-.35.35v2.1c0 .21.14.34.35.34Zm.35-2.09h1.4v1.4h-1.4v-1.4Zm3.84 2.09h2.11c.21 0 .34-.13.34-.34v-2.1c0-.21-.13-.35-.34-.35h-2.11c-.21 0-.35.14-.35.35v2.1c0 .21.14.34.35.34ZM21 14.7h1.39v1.4H21v-1.4Zm-8.75 5.95h2.1c.21 0 .34-.14.34-.36V18.2c0-.21-.13-.35-.34-.35h-2.1c-.21 0-.36.14-.36.35v2.09c0 .22.15.36.36.36Zm.35-2.11H14v1.41h-1.4v-1.41Zm3.85 2.11h2.1c.21 0 .34-.14.34-.36V18.2c0-.21-.13-.35-.34-.35h-2.1c-.21 0-.35.14-.35.35v2.09c0 .22.14.36.35.36Zm.35-2.11h1.4v1.41h-1.4v-1.41Zm3.84 2.11h2.11c.21 0 .34-.14.34-.36V18.2c0-.21-.13-.35-.34-.35h-2.11c-.21 0-.35.14-.35.35v2.09c0 .22.14.36.35.36Zm.36-2.11h1.39v1.41H21v-1.41Z"/><path d="M32.89 14.7v-1.05h.36c.21 0 .35-.14.35-.35v-1.4c0-.21-.14-.35-.35-.35h-.5l-1.29-2.28a.37.37 0 0 0-.32-.17h-6.29v-.35h.34c.21 0 .35-.14.35-.35V7c0-.21-.14-.35-.35-.35h-.59l-6.93-4.17a.318.318 0 0 0-.35 0l-6.93 4.17h-.6c-.21 0-.35.14-.35.35v1.4c0 .21.14.35.35.35h.35v.35H3.85a.37.37 0 0 0-.32.17l-1.3 2.28h-.48c-.21 0-.36.14-.36.35v1.4c0 .21.15.35.36.35h.35v16.8h-.35c-.21 0-.36.14-.36.35v1.4c0 .21.15.35.36.35h31.5c.21 0 .35-.14.35-.35v-1.4c0-.21-.14-.35-.35-.35h-.36V14.7Zm-4.2 14.35V27.3h1.41v1.75h-1.41Zm3.5-14v1.75h-1.4v-1.75h1.4ZM30.1 22.4v1.75h-1.41V22.4h1.41Zm-1.41-.7v-1.75h1.41v1.75h-1.41Zm2.1.7h1.4v1.75h-1.4V22.4Zm0-.7v-1.75h1.4v1.75h-1.4Zm0-2.45V17.5h1.4v1.75h-1.4Zm-.69 0h-1.41V17.5h1.41v1.75Zm-1.41 5.6h1.41v1.75h-1.41v-1.75Zm2.1 0h1.4v1.75h-1.4v-1.75Zm-.69-8.05h-1.41v-1.75h1.41v1.75Zm.69 10.5h1.4v1.75h-1.4V27.3Zm2.1-14.35h-8.04v-.7h8.04v.7ZM30.93 9.8l1.02 1.75h-7.1V9.8h6.08ZM17.5 3.22l5.73 3.43H11.75l5.75-3.43Zm-7.36 4.13h14.71v.7H10.14v-.7Zm14 1.4v21.7h-3.5V22.4c0-.21-.14-.35-.35-.35h-5.6c-.21 0-.34.14-.34.35v8.05h-3.5V8.75h13.29Zm-4.2 21.7h-4.9v-7.7h4.9v7.7ZM4.06 9.8h6.08v1.75h-7.1L4.06 9.8ZM2.1 12.25h8.04v.7H2.1v-.7Zm4.19 2.8v1.75h-1.4v-1.75h1.4Zm-3.5 14V27.3h1.4v1.75h-1.4Zm2.1-7.35v-1.75h1.4v1.75h-1.4Zm1.4.7v1.75h-1.4V22.4h1.4Zm-2.1-.7h-1.4v-1.75h1.4v1.75Zm0 .7v1.75h-1.4V22.4h1.4Zm0 2.45v1.75h-1.4v-1.75h1.4Zm.7 0h1.4v1.75h-1.4v-1.75Zm1.4-5.6h-1.4V17.5h1.4v1.75Zm-2.1 0h-1.4V17.5h1.4v1.75Zm.7 8.05h1.4v1.75h-1.4V27.3Zm-.7-10.5h-1.4v-1.75h1.4v1.75Zm-1.4 12.95h3.85c.21 0 .36-.14.36-.35V14.7c0-.21-.15-.35-.36-.35H2.79v-.7h7.35v16.8H2.79v-.7Zm30.1 2.1H2.1v-.7h30.79v.7Zm-8.04-1.4v-16.8h7.34v.7h-3.84c-.21 0-.35.14-.35.35v14.7c0 .21.14.35.35.35h3.84v.7h-7.34Z"/></g></svg>

<svg width="35.000000" height="35.000000" viewBox="0 0 35 35" fill="none" xmlns="http://www.w3.org/2000/svg" xmlns:xlink="http://www.w3.org/1999/xlink">
	<desc>
			Created with Pixso.
	</desc>
	<defs>
		<clipPath id="clip339_239">
			<rect id="building-property-svgrepo-com 1" width="35.000000" height="35.000000" fill="white" fill-opacity="0"/>
		</clipPath>
	</defs>
	<rect id="building-property-svgrepo-com 1" width="35.000000" height="35.000000" fill="#FFFFFF" fill-opacity="0"/>
	<g clip-path="url(#clip339_239)">
		<path id="Vector" d="M12.25 12.95L14.35 12.95C14.56 12.95 14.69 12.8 14.69 12.59L14.69 10.49C14.69 10.28 14.56 10.14 14.35 10.14L12.25 10.14C12.04 10.14 11.89 10.28 11.89 10.49L11.89 12.59C11.89 12.8 12.04 12.95 12.25 12.95ZM12.6 10.84L14 10.84L14 12.24L12.6 12.24L12.6 10.84Z" fill="#000000" fill-opacity="1.000000" fill-rule="nonzero"/>
		<path id="Vector" d="M16.45 12.95L18.55 12.95C18.76 12.95 18.89 12.8 18.89 12.59L18.89 10.49C18.89 10.28 18.76 10.14 18.55 10.14L16.45 10.14C16.24 10.14 16.1 10.28 16.1 10.49L16.1 12.59C16.1 12.8 16.24 12.95 16.45 12.95ZM16.8 10.84L18.2 10.84L18.2 12.24L16.8 12.24L16.8 10.84Z" fill="#000000" fill-opacity="1.000000" fill-rule="nonzero"/>
		<path id="Vector" d="M20.64 12.95L22.75 12.95C22.96 12.95 23.09 12.8 23.09 12.59L23.09 10.49C23.09 10.28 22.96 10.14 22.75 10.14L20.64 10.14C20.43 10.14 20.29 10.28 20.29 10.49L20.29 12.59C20.29 12.8 20.43 12.95 20.64 12.95ZM21 10.84L22.39 10.84L22.39 12.24L21 12.24L21 10.84Z" fill="#000000" fill-opacity="1.000000" fill-rule="nonzero"/>
		<path id="Vector" d="M12.25 16.79L14.35 16.79C14.56 16.79 14.69 16.66 14.69 16.45L14.69 14.35C14.69 14.14 14.56 14 14.35 14L12.25 14C12.04 14 11.89 14.14 11.89 14.35L11.89 16.45C11.89 16.66 12.04 16.79 12.25 16.79ZM12.6 14.7L14 14.7L14 16.1L12.6 16.1L12.6 14.7Z" fill="#000000" fill-opacity="1.000000" fill-rule="nonzero"/>
		<path id="Vector" d="M16.45 16.79L18.55 16.79C18.76 16.79 18.89 16.66 18.89 16.45L18.89 14.35C18.89 14.14 18.76 14 18.55 14L16.45 14C16.24 14 16.1 14.14 16.1 14.35L16.1 16.45C16.1 16.66 16.24 16.79 16.45 16.79ZM16.8 14.7L18.2 14.7L18.2 16.1L16.8 16.1L16.8 14.7Z" fill="#000000" fill-opacity="1.000000" fill-rule="nonzero"/>
		<path id="Vector" d="M20.64 16.79L22.75 16.79C22.96 16.79 23.09 16.66 23.09 16.45L23.09 14.35C23.09 14.14 22.96 14 22.75 14L20.64 14C20.43 14 20.29 14.14 20.29 14.35L20.29 16.45C20.29 16.66 20.43 16.79 20.64 16.79ZM21 14.7L22.39 14.7L22.39 16.1L21 16.1L21 14.7Z" fill="#000000" fill-opacity="1.000000" fill-rule="nonzero"/>
		<path id="Vector" d="M12.25 20.65L14.35 20.65C14.56 20.65 14.69 20.51 14.69 20.29L14.69 18.2C14.69 17.99 14.56 17.85 14.35 17.85L12.25 17.85C12.04 17.85 11.89 17.99 11.89 18.2L11.89 20.29C11.89 20.51 12.04 20.65 12.25 20.65ZM12.6 18.54L14 18.54L14 19.95L12.6 19.95L12.6 18.54Z" fill="#000000" fill-opacity="1.000000" fill-rule="nonzero"/>
		<path id="Vector" d="M16.45 20.65L18.55 20.65C18.76 20.65 18.89 20.51 18.89 20.29L18.89 18.2C18.89 17.99 18.76 17.85 18.55 17.85L16.45 17.85C16.24 17.85 16.1 17.99 16.1 18.2L16.1 20.29C16.1 20.51 16.24 20.65 16.45 20.65ZM16.8 18.54L18.2 18.54L18.2 19.95L16.8 19.95L16.8 18.54Z" fill="#000000" fill-opacity="1.000000" fill-rule="nonzero"/>
		<path id="Vector" d="M20.64 20.65L22.75 20.65C22.96 20.65 23.09 20.51 23.09 20.29L23.09 18.2C23.09 17.99 22.96 17.85 22.75 17.85L20.64 17.85C20.43 17.85 20.29 17.99 20.29 18.2L20.29 20.29C20.29 20.51 20.43 20.65 20.64 20.65ZM21 18.54L22.39 18.54L22.39 19.95L21 19.95L21 18.54Z" fill="#000000" fill-opacity="1.000000" fill-rule="nonzero"/>
		<path id="Vector" d="M32.89 14.7L32.89 13.65L33.25 13.65C33.46 13.65 33.6 13.51 33.6 13.3L33.6 11.9C33.6 11.69 33.46 11.55 33.25 11.55L32.75 11.55L31.46 9.27C31.39 9.17 31.29 9.1 31.14 9.1L24.85 9.1L24.85 8.75L25.19 8.75C25.4 8.75 25.54 8.61 25.54 8.4L25.54 7C25.54 6.79 25.4 6.65 25.19 6.65L24.6 6.65L17.67 2.48C17.56 2.41 17.42 2.41 17.32 2.48L10.39 6.65L9.79 6.65C9.58 6.65 9.44 6.79 9.44 7L9.44 8.4C9.44 8.61 9.58 8.75 9.79 8.75L10.14 8.75L10.14 9.1L3.85 9.1C3.7 9.1 3.6 9.17 3.53 9.27L2.23 11.55L1.75 11.55C1.54 11.55 1.39 11.69 1.39 11.9L1.39 13.3C1.39 13.51 1.54 13.65 1.75 13.65L2.1 13.65L2.1 14.7L2.1 29.4L2.1 30.45L1.75 30.45C1.54 30.45 1.39 30.59 1.39 30.8L1.39 32.2C1.39 32.41 1.54 32.55 1.75 32.55L33.25 32.55C33.46 32.55 33.6 32.41 33.6 32.2L33.6 30.8C33.6 30.59 33.46 30.45 33.25 30.45L32.89 30.45L32.89 29.4L32.89 14.7ZM28.69 29.05L28.69 27.3L30.1 27.3L30.1 29.05L28.69 29.05ZM32.19 15.05L32.19 16.8L30.79 16.8L30.79 15.05L32.19 15.05ZM30.1 22.4L30.1 24.15L28.69 24.15L28.69 22.4L30.1 22.4ZM28.69 21.7L28.69 19.95L30.1 19.95L30.1 21.7L28.69 21.7ZM30.79 22.4L32.19 22.4L32.19 24.15L30.79 24.15L30.79 22.4ZM30.79 21.7L30.79 19.95L32.19 19.95L32.19 21.7L30.79 21.7ZM30.79 19.25L30.79 17.5L32.19 17.5L32.19 19.25L30.79 19.25ZM30.1 19.25L28.69 19.25L28.69 17.5L30.1 17.5L30.1 19.25ZM28.69 24.85L30.1 24.85L30.1 26.6L28.69 26.6L28.69 24.85ZM30.79 24.85L32.19 24.85L32.19 26.6L30.79 26.6L30.79 24.85ZM30.1 16.8L28.69 16.8L28.69 15.05L30.1 15.05L30.1 16.8ZM30.79 27.3L32.19 27.3L32.19 29.05L30.79 29.05L30.79 27.3ZM32.89 12.95L32.54 12.95L24.85 12.95L24.85 12.25L32.89 12.25L32.89 12.95ZM30.93 9.8L31.95 11.55L24.85 11.55L24.85 9.8L30.93 9.8ZM17.5 3.22L23.23 6.65L11.75 6.65L17.5 3.22ZM10.14 7.35L24.85 7.35L24.85 8.05L24.5 8.05L10.5 8.05L10.14 8.05L10.14 7.35ZM24.14 8.75L24.14 11.9L24.14 13.3L24.14 30.45L20.64 30.45L20.64 22.4C20.64 22.19 20.5 22.05 20.29 22.05L14.69 22.05C14.48 22.05 14.35 22.19 14.35 22.4L14.35 30.45L10.85 30.45L10.85 13.3L10.85 11.9L10.85 8.75L24.14 8.75ZM19.94 30.45L15.04 30.45L15.04 22.75L19.94 22.75L19.94 30.45ZM4.06 9.8L10.14 9.8L10.14 11.55L3.04 11.55L4.06 9.8ZM2.1 12.25L10.14 12.25L10.14 12.95L2.44 12.95L2.1 12.95L2.1 12.25ZM6.29 15.05L6.29 16.8L4.89 16.8L4.89 15.05L6.29 15.05ZM2.79 29.05L2.79 27.3L4.19 27.3L4.19 29.05L2.79 29.05ZM4.89 21.7L4.89 19.95L6.29 19.95L6.29 21.7L4.89 21.7ZM6.29 22.4L6.29 24.15L4.89 24.15L4.89 22.4L6.29 22.4ZM4.19 21.7L2.79 21.7L2.79 19.95L4.19 19.95L4.19 21.7ZM4.19 22.4L4.19 24.15L2.79 24.15L2.79 22.4L4.19 22.4ZM4.19 24.85L4.19 26.6L2.79 26.6L2.79 24.85L4.19 24.85ZM4.89 24.85L6.29 24.85L6.29 26.6L4.89 26.6L4.89 24.85ZM6.29 19.25L4.89 19.25L4.89 17.5L6.29 17.5L6.29 19.25ZM4.19 19.25L2.79 19.25L2.79 17.5L4.19 17.5L4.19 19.25ZM4.89 27.3L6.29 27.3L6.29 29.05L4.89 29.05L4.89 27.3ZM4.19 16.8L2.79 16.8L2.79 15.05L4.19 15.05L4.19 16.8ZM2.79 29.75L6.64 29.75C6.85 29.75 7 29.61 7 29.4L7 14.7C7 14.49 6.85 14.35 6.64 14.35L2.79 14.35L2.79 13.65L10.14 13.65L10.14 30.45L2.79 30.45L2.79 29.75ZM32.89 31.85L2.1 31.85L2.1 31.15L2.44 31.15L10.5 31.15L14.69 31.15L20.29 31.15L24.5 31.15L32.54 31.15L32.89 31.15L32.89 31.85ZM24.85 30.45L24.85 13.65L32.19 13.65L32.19 14.35L28.35 14.35C28.14 14.35 28 14.49 28 14.7L28 29.4C28 29.61 28.14 29.75 28.35 29.75L32.19 29.75L32.19 30.45L24.85 30.45Z" fill="#000000" fill-opacity="1.000000" fill-rule="nonzero"/>
	</g>
</svg>
